X:1
T:Title
%%score { ( 1 4 ) | ( 2 3 ) }
L:1/8
Q:1/4=104
M:4/4
K:Eb
V:1 treble nm="Grand Piano"
V:4 treble 
V:2 bass 
V:3 bass 
V:1
 [EG]2 [EG]2 [EG]2 [EG]>[FA] | [GB]2 [EG]2 [Ge]4 | [EG]2 [EG]2 [EG]2 [EG]>[FA] | [GB]2 G2 F4 | %4
w: Arthur~Berridge * * * *||||
 G2 [EG]2 [EG]2 [EG]>[FA] | [GB]2 [EG]2 [Ge]4 | d2 B>c d2 B2 | c2 d2 [DB]4 | %8
w: ||||
 [FA]2 [DF]>[EG] [FA]2 [Ac]2 | [GB]2 [EG]2 [GB]4 | [FA]2 [DF]>[EG] [FA]2 [Dc]2 | [GB]2 G2 F4 | %12
w: ||||
 G2 [EG]2 [EG]2 [EG]>[FA] | [GB]2 [EG]2 [Ge]4 | [Ac]2 [Bd]>c [EGB]2 [Ge]2 | [DG]2 [DF]2 E4 |] %16
w: ||||
V:2
 [E,B,]2 [B,,B,]2 [E,B,]2 [B,,B,]2 | [E,B,]2 [E,B,]2 [E,B,]4 | [E,B,]2 [B,,B,]2 [E,B,]2 [B,,B,]2 | %3
 [E,B,]2 [G,B,E]2 [B,D]4 | [E,B,E]2 [B,,B,]2 [E,B,]2 [B,,B,]2 | [E,B,]2 [E,B,]2 [C,C]4 | %6
 [F,B,F]2 D>E [F,B,F]2 [F,DF]2 | [F,=A,E]2 [F,A,E]2 [B,,B,]4 | [D,B,]2 [B,,B,]2 [D,B,]2 [B,,B,]2 | %9
 [E,B,]2 [E,B,]2 [E,B,]4 | [D,B,]2 [B,,B,]2 [D,B,]2 [B,,B,]2 | [E,B,]2 [G,B,E]2 [B,D]4 | %12
 [E,B,E]2 [B,,B,]2 [E,B,]2 [B,,B,]2 | [E,B,]2 [E,B,]2 [E,B,]4 | [A,,A,]2 z z/ A/ B,,2 [B,,B,]2 | %15
 [B,,A,]2 [B,,A,]2 [E,G,]4 |] %16
V:3
 x8 | x8 | x8 | x8 | x8 | x8 | z2 F,2 z4 | x8 | x8 | x8 | x8 | x8 | x8 | x8 | z2 A,,2 z4 | x8 |] %16
V:4
 x8 | x8 | x8 | x8 | x8 | x8 | x8 | x8 | x8 | x8 | x8 | x8 | x8 | x8 | z2 E2 z4 | x8 |] %16

